X: 10022
T: Diabolo Lyon
R: three-two
M: 3/2
K: Eminor
M:11/8
|:EFGA cBG FEBG|CDEC A,2A, agf2|
EFGA cBG FEBG|1 CDEG AGED EED:|2 CDEG AGED E2E||
|:GFGE FDFA G2E|GFEG AGFD CCB,|
A,B,CD EA,EG FFD|CDEG AGED E2E:|
|:gfge fdfa g2e|gfge fdfa b2e|
c'bac' bgfg e2d|cdef gafd e2:|

